X:1
T:Interval Study — Irish Flute in D
C:sheet-music skill
M:4/4
L:1/4
Q:1/4=66
K:D
H:Focus on the jump across the register break (B5-D6). Slur each pair smoothly.
(de)(fg)|(ab)(c'd')|(d'e')(f'g')|(a'b')(c''d'')|
(d'd)(c'b)|(ag)(fe)|(d'a)(B f)|(d4)|]
